topics/special-relativity/Latex/images/svg/Length_contraction_rest_frame.svg

<?xml version="1.0" encoding="UTF-8"?>
<svg xmlns="http://www.w3.org/2000/svg" xmlns:xlink="http://www.w3.org/1999/xlink" width="147.053pt" height="218.475pt" viewBox="0 0 147.053 218.475" version="1.1">
<defs>
<g>
<symbol overflow="visible" id="glyph0-0">
<path style="stroke:none;" d=""/>
</symbol>
<symbol overflow="visible" id="glyph0-1">
<path style="stroke:none;" d="M 2.578125 -6.8125 C 2.578125 -6.8125 2.578125 -6.921875 2.4375 -6.921875 C 2.21875 -6.921875 1.484375 -6.84375 1.21875 -6.8125 C 1.140625 -6.8125 1.03125 -6.796875 1.03125 -6.609375 C 1.03125 -6.5 1.140625 -6.5 1.28125 -6.5 C 1.765625 -6.5 1.78125 -6.40625 1.78125 -6.328125 L 1.75 -6.125 L 0.484375 -1.140625 C 0.453125 -1.03125 0.4375 -0.96875 0.4375 -0.8125 C 0.4375 -0.234375 0.875 0.109375 1.34375 0.109375 C 1.671875 0.109375 1.921875 -0.09375 2.09375 -0.453125 C 2.265625 -0.828125 2.390625 -1.40625 2.390625 -1.421875 C 2.390625 -1.53125 2.296875 -1.53125 2.265625 -1.53125 C 2.171875 -1.53125 2.15625 -1.484375 2.140625 -1.34375 C 1.96875 -0.703125 1.78125 -0.109375 1.375 -0.109375 C 1.078125 -0.109375 1.078125 -0.421875 1.078125 -0.5625 C 1.078125 -0.8125 1.09375 -0.859375 1.140625 -1.046875 Z M 2.578125 -6.8125 "/>
</symbol>
<symbol overflow="visible" id="glyph0-2">
<path style="stroke:none;" d="M 3.734375 -6.03125 C 3.8125 -6.390625 3.84375 -6.5 4.78125 -6.5 C 5.078125 -6.5 5.15625 -6.5 5.15625 -6.6875 C 5.15625 -6.8125 5.046875 -6.8125 5 -6.8125 C 4.671875 -6.8125 3.859375 -6.78125 3.53125 -6.78125 C 3.234375 -6.78125 2.5 -6.8125 2.203125 -6.8125 C 2.140625 -6.8125 2.015625 -6.8125 2.015625 -6.609375 C 2.015625 -6.5 2.109375 -6.5 2.296875 -6.5 C 2.3125 -6.5 2.5 -6.5 2.671875 -6.484375 C 2.84375 -6.453125 2.9375 -6.453125 2.9375 -6.3125 C 2.9375 -6.28125 2.9375 -6.25 2.90625 -6.125 L 1.5625 -0.78125 C 1.46875 -0.390625 1.453125 -0.3125 0.65625 -0.3125 C 0.484375 -0.3125 0.390625 -0.3125 0.390625 -0.109375 C 0.390625 0 0.484375 0 0.65625 0 L 5.28125 0 C 5.515625 0 5.515625 0 5.578125 -0.171875 L 6.375 -2.328125 C 6.40625 -2.4375 6.40625 -2.453125 6.40625 -2.46875 C 6.40625 -2.5 6.375 -2.578125 6.296875 -2.578125 C 6.203125 -2.578125 6.1875 -2.515625 6.125 -2.359375 C 5.78125 -1.453125 5.34375 -0.3125 3.625 -0.3125 L 2.6875 -0.3125 C 2.546875 -0.3125 2.515625 -0.3125 2.46875 -0.3125 C 2.359375 -0.328125 2.328125 -0.34375 2.328125 -0.421875 C 2.328125 -0.453125 2.328125 -0.46875 2.375 -0.640625 Z M 3.734375 -6.03125 "/>
</symbol>
<symbol overflow="visible" id="glyph1-0">
<path style="stroke:none;" d=""/>
</symbol>
<symbol overflow="visible" id="glyph1-1">
<path style="stroke:none;" d="M 2.328125 -4.4375 C 2.328125 -4.625 2.328125 -4.625 2.125 -4.625 C 1.671875 -4.1875 1.046875 -4.1875 0.765625 -4.1875 L 0.765625 -3.9375 C 0.921875 -3.9375 1.390625 -3.9375 1.765625 -4.125 L 1.765625 -0.578125 C 1.765625 -0.34375 1.765625 -0.25 1.078125 -0.25 L 0.8125 -0.25 L 0.8125 0 C 0.9375 0 1.796875 -0.03125 2.046875 -0.03125 C 2.265625 -0.03125 3.140625 0 3.296875 0 L 3.296875 -0.25 L 3.03125 -0.25 C 2.328125 -0.25 2.328125 -0.34375 2.328125 -0.578125 Z M 2.328125 -4.4375 "/>
</symbol>
<symbol overflow="visible" id="glyph1-2">
<path style="stroke:none;" d="M 3.515625 -1.265625 L 3.28125 -1.265625 C 3.265625 -1.109375 3.1875 -0.703125 3.09375 -0.640625 C 3.046875 -0.59375 2.515625 -0.59375 2.40625 -0.59375 L 1.125 -0.59375 C 1.859375 -1.234375 2.109375 -1.4375 2.515625 -1.765625 C 3.03125 -2.171875 3.515625 -2.609375 3.515625 -3.265625 C 3.515625 -4.109375 2.78125 -4.625 1.890625 -4.625 C 1.03125 -4.625 0.4375 -4.015625 0.4375 -3.375 C 0.4375 -3.03125 0.734375 -2.984375 0.8125 -2.984375 C 0.96875 -2.984375 1.171875 -3.109375 1.171875 -3.359375 C 1.171875 -3.484375 1.125 -3.734375 0.765625 -3.734375 C 0.984375 -4.21875 1.453125 -4.375 1.78125 -4.375 C 2.484375 -4.375 2.84375 -3.828125 2.84375 -3.265625 C 2.84375 -2.65625 2.40625 -2.1875 2.1875 -1.9375 L 0.515625 -0.265625 C 0.4375 -0.203125 0.4375 -0.1875 0.4375 0 L 3.3125 0 Z M 3.515625 -1.265625 "/>
</symbol>
<symbol overflow="visible" id="glyph2-0">
<path style="stroke:none;" d=""/>
</symbol>
<symbol overflow="visible" id="glyph2-1">
<path style="stroke:none;" d="M 4.40625 -6.953125 C 4.34375 -7.09375 4.3125 -7.140625 4.140625 -7.140625 C 3.984375 -7.140625 3.953125 -7.09375 3.890625 -6.953125 L 0.515625 -0.203125 C 0.46875 -0.109375 0.46875 -0.09375 0.46875 -0.078125 C 0.46875 0 0.53125 0 0.6875 0 L 7.609375 0 C 7.765625 0 7.828125 0 7.828125 -0.078125 C 7.828125 -0.09375 7.828125 -0.109375 7.78125 -0.203125 Z M 3.828125 -6.140625 L 6.515625 -0.75 L 1.140625 -0.75 Z M 3.828125 -6.140625 "/>
</symbol>
</g>
<clipPath id="clip1">
  <path d="M 125 80 L 147.054688 80 L 147.054688 123 L 125 123 Z M 125 80 "/>
</clipPath>
</defs>
<g id="surface1">
<path style=" stroke:none;fill-rule:nonzero;fill:rgb(100%,89.411926%,78.431702%);fill-opacity:1;" d="M 0 218.476563 L 147.054688 218.476563 L 147.054688 0 L 0 0 Z M 0 218.476563 "/>
<path style="fill-rule:nonzero;fill:rgb(100%,50%,0%);fill-opacity:1;stroke-width:0.3985;stroke-linecap:butt;stroke-linejoin:miter;stroke:rgb(0%,0%,0%);stroke-opacity:1;stroke-miterlimit:10;" d="M 7.796687 -0.001875 C 7.796687 4.306719 4.3045 7.795 -0.0001875 7.795 C -4.304875 7.795 -7.797063 4.306719 -7.797063 -0.001875 C -7.797063 -4.306563 -4.304875 -7.794844 -0.0001875 -7.794844 C 4.3045 -7.794844 7.796687 -4.306563 7.796687 -0.001875 Z M 7.796687 -0.001875 " transform="matrix(1,0,0,-1,45.508,101.545)"/>
<path style=" stroke:none;fill-rule:nonzero;fill:rgb(50%,50%,50%);fill-opacity:1;" d="M 146.855469 101.546875 C 146.855469 92.933594 143.363281 85.953125 139.058594 85.953125 C 134.753906 85.953125 131.265625 92.933594 131.265625 101.546875 C 131.265625 110.15625 134.753906 117.136719 139.058594 117.136719 C 143.363281 117.136719 146.855469 110.15625 146.855469 101.546875 Z M 146.855469 101.546875 "/>
<g clip-path="url(#clip1)" clip-rule="nonzero">
<path style="fill:none;stroke-width:0.3985;stroke-linecap:butt;stroke-linejoin:miter;stroke:rgb(0%,0%,0%);stroke-opacity:1;stroke-miterlimit:10;" d="M 101.347469 -0.001875 C 101.347469 8.611406 97.855281 15.591875 93.550594 15.591875 C 89.245906 15.591875 85.757625 8.611406 85.757625 -0.001875 C 85.757625 -8.61125 89.245906 -15.591719 93.550594 -15.591719 C 97.855281 -15.591719 101.347469 -8.61125 101.347469 -0.001875 Z M 101.347469 -0.001875 " transform="matrix(1,0,0,-1,45.508,101.545)"/>
</g>
<path style="fill-rule:nonzero;fill:rgb(50%,50%,50%);fill-opacity:1;stroke-width:0.3985;stroke-linecap:butt;stroke-linejoin:miter;stroke:rgb(0%,0%,0%);stroke-opacity:1;stroke-miterlimit:10;" d="M 15.589656 93.552812 C 15.589656 97.8575 8.609187 101.345781 -0.0001875 101.345781 C -8.609563 101.345781 -15.590031 97.8575 -15.590031 93.552812 C -15.590031 89.244219 -8.609563 85.755937 -0.0001875 85.755937 C 8.609187 85.755937 15.589656 89.244219 15.589656 93.552812 Z M 15.589656 93.552812 " transform="matrix(1,0,0,-1,45.508,101.545)"/>
<path style="fill:none;stroke-width:1.49442;stroke-linecap:butt;stroke-linejoin:miter;stroke:rgb(100%,0%,0%);stroke-opacity:1;stroke-dasharray:2.98883,2.98883;stroke-miterlimit:10;" d="M -0.0001875 -2.337813 L 89.909969 -2.337813 " transform="matrix(1,0,0,-1,45.508,101.545)"/>
<path style=" stroke:none;fill-rule:nonzero;fill:rgb(100%,0%,0%);fill-opacity:1;" d="M 139.054688 103.882813 L 133.234375 100.972656 L 135.417969 103.882813 L 133.234375 106.792969 "/>
<path style="fill:none;stroke-width:1.49442;stroke-linecap:butt;stroke-linejoin:miter;stroke:rgb(100%,0%,0%);stroke-opacity:1;stroke-dasharray:2.98883,2.98883;stroke-miterlimit:10;" d="M 93.546687 2.337969 L 3.636531 2.337969 " transform="matrix(1,0,0,-1,45.508,101.545)"/>
<path style=" stroke:none;fill-rule:nonzero;fill:rgb(100%,0%,0%);fill-opacity:1;" d="M 45.507813 99.207031 L 51.328125 102.117188 L 49.144531 99.207031 L 51.328125 96.296875 "/>
<path style="fill:none;stroke-width:1.49442;stroke-linecap:butt;stroke-linejoin:miter;stroke:rgb(100%,0%,0%);stroke-opacity:1;stroke-dasharray:2.98883,2.98883;stroke-miterlimit:10;" d="M -2.340031 -0.001875 L -2.340031 89.908281 " transform="matrix(1,0,0,-1,45.508,101.545)"/>
<path style=" stroke:none;fill-rule:nonzero;fill:rgb(100%,0%,0%);fill-opacity:1;" d="M 43.167969 8 L 40.261719 13.816406 L 43.167969 11.636719 L 46.078125 13.816406 "/>
<g style="fill:rgb(100%,0%,0%);fill-opacity:1;">
  <use xlink:href="#glyph0-1" x="31.66" y="57.485"/>
</g>
<g style="fill:rgb(100%,0%,0%);fill-opacity:1;">
  <use xlink:href="#glyph1-1" x="34.632" y="58.98"/>
</g>
<path style="fill:none;stroke-width:1.49442;stroke-linecap:butt;stroke-linejoin:miter;stroke:rgb(100%,0%,0%);stroke-opacity:1;stroke-dasharray:2.98883,2.98883;stroke-miterlimit:10;" d="M 2.339656 93.545 L 2.339656 3.634844 " transform="matrix(1,0,0,-1,45.508,101.545)"/>
<path style=" stroke:none;fill-rule:nonzero;fill:rgb(100%,0%,0%);fill-opacity:1;" d="M 47.847656 101.546875 L 50.753906 95.726563 L 47.847656 97.910156 L 44.9375 95.726563 "/>
<g style="fill:rgb(100%,0%,0%);fill-opacity:1;">
  <use xlink:href="#glyph0-1" x="51.914" y="57.485"/>
</g>
<g style="fill:rgb(100%,0%,0%);fill-opacity:1;">
  <use xlink:href="#glyph1-2" x="54.887" y="58.98"/>
</g>
<path style="fill:none;stroke-width:0.79701;stroke-linecap:butt;stroke-linejoin:miter;stroke:rgb(0%,0%,0%);stroke-opacity:1;stroke-miterlimit:10;" d="M -23.386906 0.709062 L -23.386906 92.837969 " transform="matrix(1,0,0,-1,45.508,101.545)"/>
<path style="fill:none;stroke-width:0.6376;stroke-linecap:round;stroke-linejoin:round;stroke:rgb(0%,0%,0%);stroke-opacity:1;stroke-miterlimit:10;" d="M -1.552494 2.073542 C -1.423587 1.296199 -0.0017125 0.12823 0.388913 -0.00067625 C -0.0017125 -0.129583 -1.423587 -1.293645 -1.552494 -2.070989 " transform="matrix(0,1,1,0,22.12177,100.83765)"/>
<path style="fill:none;stroke-width:0.6376;stroke-linecap:round;stroke-linejoin:round;stroke:rgb(0%,0%,0%);stroke-opacity:1;stroke-miterlimit:10;" d="M -1.554319 2.070989 C -1.425413 1.293645 0.00036875 0.129583 0.387087 0.00067625 C 0.00036875 -0.12823 -1.425413 -1.296199 -1.554319 -2.073542 " transform="matrix(0,-1,-1,0,22.12177,8.7074)"/>
<g style="fill:rgb(0%,0%,0%);fill-opacity:1;">
  <use xlink:href="#glyph2-1" x="3.321" y="58.177"/>
</g>
<g style="fill:rgb(0%,0%,0%);fill-opacity:1;">
  <use xlink:href="#glyph0-2" x="11.623" y="58.177"/>
</g>
</g>
</svg>

<svg xmlns="http://www.w3.org/2000/svg" xmlns:xlink="http://www.w3.org/1999/xlink" width="196.071" height="291.3" viewBox="0 0 147.053 218.475"><defs><symbol id="b" overflow="visible"><path d="M2.578-6.812s0-.11-.14-.11c-.22 0-.954.078-1.22.11-.077 0-.187.015-.187.203 0 .109.11.109.25.109.485 0 .5.094.5.172l-.031.203L.484-1.141a1 1 0 0 0-.046.329.89.89 0 0 0 .906.921c.328 0 .578-.203.75-.562.172-.375.297-.953.297-.969 0-.11-.094-.11-.125-.11-.094 0-.11.048-.125.188-.172.64-.36 1.235-.766 1.235-.297 0-.297-.313-.297-.453 0-.25.016-.297.063-.485Zm0 0" style="stroke:none"/></symbol><symbol id="f" overflow="visible"><path d="M3.734-6.031c.079-.36.11-.469 1.047-.469.297 0 .375 0 .375-.187 0-.125-.11-.125-.156-.125-.328 0-1.14.03-1.469.03-.297 0-1.031-.03-1.328-.03-.062 0-.187 0-.187.203 0 .109.093.109.28.109.017 0 .204 0 .376.016.172.03.265.03.265.172 0 .03 0 .062-.03.187L1.562-.781c-.094.39-.11.469-.907.469-.172 0-.265 0-.265.203C.39 0 .484 0 .656 0h4.625c.235 0 .235 0 .297-.172l.797-2.156c.031-.11.031-.125.031-.14 0-.032-.031-.11-.11-.11-.093 0-.109.062-.171.219-.344.906-.781 2.047-2.5 2.047H2.468c-.109-.016-.14-.032-.14-.11 0-.031 0-.047.047-.219Zm0 0" style="stroke:none"/></symbol><symbol id="c" overflow="visible"><path d="M2.328-4.437c0-.188 0-.188-.203-.188-.453.438-1.078.438-1.36.438v.25c.157 0 .626 0 1-.188v3.547c0 .234 0 .328-.687.328H.812V0c.125 0 .985-.031 1.235-.031.219 0 1.094.031 1.25.031v-.25H3.03c-.703 0-.703-.094-.703-.328Zm0 0" style="stroke:none"/></symbol><symbol id="d" overflow="visible"><path d="M3.516-1.266H3.28c-.015.157-.094.563-.187.625-.047.047-.578.047-.688.047H1.125c.734-.64.984-.843 1.39-1.172.516-.406 1-.843 1-1.5 0-.843-.734-1.359-1.624-1.359-.86 0-1.453.61-1.453 1.25 0 .344.296.39.375.39.156 0 .359-.124.359-.374 0-.125-.047-.375-.406-.375.218-.485.687-.641 1.015-.641.703 0 1.063.547 1.063 1.11 0 .609-.438 1.078-.656 1.328L.516-.266C.437-.203.437-.187.437 0h2.876Zm0 0" style="stroke:none"/></symbol><symbol id="e" overflow="visible"><path d="M4.406-6.953c-.062-.14-.093-.188-.265-.188-.157 0-.188.047-.25.188L.516-.203c-.047.094-.047.11-.047.125C.469 0 .53 0 .688 0h6.921c.157 0 .22 0 .22-.078 0-.016 0-.031-.048-.125Zm-.578.812L6.516-.75H1.14Zm0 0" style="stroke:none"/></symbol><clipPath id="a"><path d="M125 80h22.055v43H125Zm0 0"/></clipPath></defs><path d="M0 218.477h147.055V0H0Zm0 0" style="stroke:none;fill-rule:nonzero;fill:#ffe4c8;fill-opacity:1"/><path d="M7.797-.002A7.796 7.796 0 0 1 0 7.795a7.795 7.795 0 1 1 0-15.59A7.795 7.795 0 0 1 7.797-.002Zm0 0" style="fill-rule:nonzero;fill:#ff8000;fill-opacity:1;stroke-width:.3985;stroke-linecap:butt;stroke-linejoin:miter;stroke:#000;stroke-opacity:1;stroke-miterlimit:10" transform="matrix(1 0 0 -1 45.508 101.545)"/><path d="M146.855 101.547c0-8.613-3.492-15.594-7.796-15.594s-7.793 6.98-7.793 15.594c0 8.61 3.488 15.59 7.793 15.59s7.796-6.98 7.796-15.59m0 0" style="stroke:none;fill-rule:nonzero;fill:gray;fill-opacity:1"/><g clip-path="url(#a)"><path d="M101.347-.002c0 8.613-3.492 15.594-7.796 15.594s-7.793-6.98-7.793-15.594c0-8.61 3.488-15.59 7.793-15.59s7.796 6.98 7.796 15.59Zm0 0" style="fill:none;stroke-width:.3985;stroke-linecap:butt;stroke-linejoin:miter;stroke:#000;stroke-opacity:1;stroke-miterlimit:10" transform="matrix(1 0 0 -1 45.508 101.545)"/></g><path d="M15.59 93.553c0 4.305-6.98 7.793-15.59 7.793s-15.59-3.489-15.59-7.793c0-4.309 6.98-7.797 15.59-7.797s15.59 3.488 15.59 7.797Zm0 0" style="fill-rule:nonzero;fill:gray;fill-opacity:1;stroke-width:.3985;stroke-linecap:butt;stroke-linejoin:miter;stroke:#000;stroke-opacity:1;stroke-miterlimit:10" transform="matrix(1 0 0 -1 45.508 101.545)"/><path d="M0-2.338h89.91" style="fill:none;stroke-width:1.49442;stroke-linecap:butt;stroke-linejoin:miter;stroke:red;stroke-opacity:1;stroke-dasharray:2.98883,2.98883;stroke-miterlimit:10" transform="matrix(1 0 0 -1 45.508 101.545)"/><path d="m139.055 103.883-5.82-2.91 2.183 2.91-2.184 2.91" style="stroke:none;fill-rule:nonzero;fill:red;fill-opacity:1"/><path d="M93.547 2.338H3.637" style="fill:none;stroke-width:1.49442;stroke-linecap:butt;stroke-linejoin:miter;stroke:red;stroke-opacity:1;stroke-dasharray:2.98883,2.98883;stroke-miterlimit:10" transform="matrix(1 0 0 -1 45.508 101.545)"/><path d="m45.508 99.207 5.82 2.91-2.183-2.91 2.183-2.91" style="stroke:none;fill-rule:nonzero;fill:red;fill-opacity:1"/><path d="M-2.34-.002v89.91" style="fill:none;stroke-width:1.49442;stroke-linecap:butt;stroke-linejoin:miter;stroke:red;stroke-opacity:1;stroke-dasharray:2.98883,2.98883;stroke-miterlimit:10" transform="matrix(1 0 0 -1 45.508 101.545)"/><path d="m43.168 8-2.906 5.816 2.906-2.18 2.91 2.18" style="stroke:none;fill-rule:nonzero;fill:red;fill-opacity:1"/><use xlink:href="#b" x="31.66" y="57.485" style="fill:red;fill-opacity:1"/><use xlink:href="#c" x="34.632" y="58.98" style="fill:red;fill-opacity:1"/><path d="M2.34 93.545V3.635" style="fill:none;stroke-width:1.49442;stroke-linecap:butt;stroke-linejoin:miter;stroke:red;stroke-opacity:1;stroke-dasharray:2.98883,2.98883;stroke-miterlimit:10" transform="matrix(1 0 0 -1 45.508 101.545)"/><path d="m47.848 101.547 2.906-5.82-2.906 2.183-2.91-2.183" style="stroke:none;fill-rule:nonzero;fill:red;fill-opacity:1"/><use xlink:href="#b" x="51.914" y="57.485" style="fill:red;fill-opacity:1"/><use xlink:href="#d" x="54.887" y="58.98" style="fill:red;fill-opacity:1"/><path d="M-23.387.71v92.128" style="fill:none;stroke-width:.79701;stroke-linecap:butt;stroke-linejoin:miter;stroke:#000;stroke-opacity:1;stroke-miterlimit:10" transform="matrix(1 0 0 -1 45.508 101.545)"/><path d="M-1.552 2.074C-1.424 1.296-.002.128.388-.001c-.39-.129-1.812-1.293-1.94-2.07" style="fill:none;stroke-width:.6376;stroke-linecap:round;stroke-linejoin:round;stroke:#000;stroke-opacity:1;stroke-miterlimit:10" transform="matrix(0 1 1 0 22.122 100.838)"/><path d="M-1.554 2.071C-1.425 1.294 0 .13.387.001 0-.13-1.425-1.296-1.554-2.074" style="fill:none;stroke-width:.6376;stroke-linecap:round;stroke-linejoin:round;stroke:#000;stroke-opacity:1;stroke-miterlimit:10" transform="matrix(0 -1 -1 0 22.122 8.707)"/><use xlink:href="#e" x="3.321" y="58.177" style="fill:#000;fill-opacity:1"/><use xlink:href="#f" x="11.623" y="58.177" style="fill:#000;fill-opacity:1"/></svg>
